static/img/home-offerings-deploy.svg

<svg height="100" viewBox="0 0 88 100" width="88" xmlns="http://www.w3.org/2000/svg" xmlns:xlink="http://www.w3.org/1999/xlink"><linearGradient id="a" x1="100%" x2="0%" y1="50%" y2="50%"><stop offset="0" stop-color="#e77e2a"/><stop offset="1" stop-color="#e05528"/></linearGradient><path d="m88 14.2857422v8.9285156c0 7.8683594-19.7082679 14.2857422-44 14.2857422s-44-6.4173828-44-14.2857422v-8.9285156c0-7.86835939 19.7082679-14.2857422 44-14.2857422s44 6.41738281 44 14.2857422zm0 20.0892578v20.0892578c0 7.8683594-19.7082679 14.2857422-44 14.2857422s-44-6.4173828-44-14.2857422v-20.0892578c9.453125 6.4732422 26.7551429 9.4867188 44 9.4867188s34.5466786-3.0134766 44-9.4867188zm0 31.25v20.0892578c0 7.8683594-19.7082679 14.2857422-44 14.2857422s-44-6.4173828-44-14.2857422v-20.0892578c9.453125 6.4732422 26.7551429 9.4867187 44 9.4867187s34.5466786-3.0134765 44-9.4867187z" fill="url(#a)" transform=""/></svg>

<?xml version="1.0" encoding="UTF-8"?>
<svg width="88px" height="100px" viewBox="0 0 88 100" version="1.1" xmlns="http://www.w3.org/2000/svg" xmlns:xlink="http://www.w3.org/1999/xlink">
    <!-- Generator: Sketch 50.2 (55047) - http://www.bohemiancoding.com/sketch -->
    <title>database</title>
    <desc>Created with Sketch.</desc>
    <defs>
        <linearGradient x1="100%" y1="50%" x2="-2.22044605e-14%" y2="50%" id="linearGradient-1">
            <stop stop-color="#E77E2A" offset="0%"></stop>
            <stop stop-color="#E05528" offset="100%"></stop>
        </linearGradient>
    </defs>
    <g id="Page-1" stroke="none" stroke-width="1" fill="none" fill-rule="evenodd">
        <g id="homepage" transform="translate(-364.000000, -1316.000000)" fill="url(#linearGradient-1)" fill-rule="nonzero">
            <g id="database" transform="translate(364.000000, 1316.000000)">
                <path d="M88,14.2857422 L88,23.2142578 C88,31.0826172 68.2917321,37.5 44,37.5 C19.7082679,37.5 0,31.0826172 0,23.2142578 L0,14.2857422 C0,6.41738281 19.7082679,0 44,0 C68.2917321,0 88,6.41738281 88,14.2857422 Z M88,34.375 L88,54.4642578 C88,62.3326172 68.2917321,68.75 44,68.75 C19.7082679,68.75 0,62.3326172 0,54.4642578 L0,34.375 C9.453125,40.8482422 26.7551429,43.8617188 44,43.8617188 C61.2448571,43.8617188 78.5466786,40.8482422 88,34.375 Z M88,65.625 L88,85.7142578 C88,93.5826172 68.2917321,100 44,100 C19.7082679,100 0,93.5826172 0,85.7142578 L0,65.625 C9.453125,72.0982422 26.7551429,75.1117187 44,75.1117187 C61.2448571,75.1117187 78.5466786,72.0982422 88,65.625 Z" id="Shape"></path>
            </g>
        </g>
    </g>
</svg>
